X:1
T:The Well-Tempered Clavier Part I Praeludium XIII
T:BWV 858 
T:J. S. Bach
%%score { 1 | 2 }
L:1/8
Q:1/4=96
M:12/16
K:F#
V:1 treble nm="Harp"
V:2 bass 
V:1
"^Andante" F/A/c/ A/F/c/ d/4c/4d/4c/4d/4c/4d/4c/4 d/4c/4d/4c/4 | c/A/B c/A d/G A/F/- | %2
 F/B/E B/D B/C/ E/G/B/ | A/F/^B F/c F/d G/e/- | e/g/c d/^B/ c/e/c/ c/e/4d/4c/- | %5
 c/a/c d/^B/ c/e/g/ e/c/g/ | a/4g/4a/4g/4a/4g/4a/4g/4a/4g/4a/4g/4 g/e/f g/e/- | %7
 e/a/d e/^^c/ f/A/B ^c/A/- | A/d/G A/F B/=E F/D/ | G/^^C/D C/G E/B G/e/- | e/E/F A/d E/G A/^^c/ | %11
 e/4d/4e/4d/4e/4d/4e/4d/4e/4d/4e/4d/4 e/4d/4f/a/ f/d/^^g/ | %12
 a/4^^g/4a/4g/4a/4g/4a/4g/4a/4g/4a/4g/4 a/4g/4a/^b/ e/f/d/ | c/e/A ^B/^^G/ A/c/A/ A/c/4B/4A/- | %14
 A/f/A ^B/^^G/ A/c/e/ c/A/^^f/ | g/4^^f/4g/4f/4g/4f/4g/4f/4g/4f/4g/4f/4 g/4f/4a/d/ c/B/A/ | %16
 B/d/G A/^^F/ G/B/G/ G/B/4A/4G/- | G/=e/G A/^^F/ G/B/d/ B/G/^e/ | %18
 f/4e/4f/4e/4f/4e/4f/4e/4f/4e/4f/4e/4 f/4e/4c/e/ g/e/g/ | b3- b/g/a b/g/- | %20
 g/e/f g/e/ f/A/B c/A/- | A/d/G A/F =F/B G/d/- | d/B/g e/B G/c A/F/- | F/D/B G/E/ F3- | %24
 F/A,/B, C/A, D/G, A,/F,/ | B,3- B,/=F/G/ F/B,/G/ | =A,/C/F/ B,/E/G/ C/F/=A/=D/G/B/ | %27
 E/B/=d B/e d/g e/b/ | a/c/f g/=f/ ^f/A/f/ f/a/4g/4f/- | f/G/fg/e/ f/c/A/ !fermata!F3/2 |] %30
V:2
 z3 F,/A,/C/ A,/F,/D/ | D3/2C3/2 B,3/2A,3/2 | G,3/2F,3/2 E,3/2C,3/2 | F,3/2G,3/2 A,3/2^B,3/2 | %4
 C3/2G,3/2 A,3/2E,3/2 | F,3/2G,3/2 C,3/2 z3/2 | C,/E,/G,/ E,/C,/A,/ A,3/2G,3/2 | %7
 F,3/2E,3/2 D,3/2C,3/2 | B,,3/2A,,3/2 G,,3/2F,,3/2 | E,,3/2D,3/2 ^^C,3/2A,,3/2 | %10
 D,3/2F,3/2 G,3/2A,3/2 | D,/F,/A,/ F,/D,/^B,/ C/4^B,/4C/4^B,/4C/4^B,/4C/4^B,/4C/4^B,/4C/4^B,/4 | %12
 C/4^B,/4D/F/ D/^B,/F/ F/E/D/ C/D/E/ | A,3/2E,3/2 F,3/2C,3/2 | D,3/2E,3/2 A,,3/2 z3/2 | %15
 D,/^^F,/A,/ F,/D,/C/ C3/2F,3/2 | G,3/2D,3/2 =E,3/2B,,3/2 | C,3/2D,3/2G,,3/2 z3/2 | %18
 C,/E,/G,/ E,/C,/B,/ B,2 G,/B,/ | E/G/E/ C/E/C/ F,3/2B,3/2 | ^B,3/2C3/2 D,3/2C,3/2 | %21
 B,,3/2A,,3/2 G,,3/2F,3/2 | E,3/2C,3/2 F,3/2A,,3/2 | B,,3/2C,3/2 F,,/A,,/C,/ A,,/F,,/D,/ | %24
 D,3/2C,3/2 B,,3/2A,,3/2 | G,,/B,,/D,/ B,,/G,,/E,/ C,,3- | C,,3/2C,3/2 C,,3/2C,3/2 | %27
 C,,3/2E,3/2 G,3/2C3/2 | F,3/2C,3/2 D,3/2A,,3/2 | B,,3/2C,3/2 F,,3 |] %30

